X: 816
T: Gemi Kalkar Suları Akar
C: (Anonim)
O: Turkey
F: http://compmusic.upf.edu/node/140
N: hicaz--rumeliturkusu--sofyan--gemi_kalkar--
N: makam= hicaz
N: form= rumeliturkusu
N: usul= sofyan = 4/4
M: 4/4
L: 1/16
K: C _7/8B ^f ^c 
Q: 1/4=78
%%MIDI tuningsystem comma53
A4 e=fed edc4A2  | B2cd cBAG A2GA B2AB  | 
w:  ARANAĞME  |   | 
c2Bc d2cd edc4A2  | B2cd cBBA A4 ABAG  | 
w:   |   | 
A4 e=fed edc4A2  | B2cd cBAG A2GA B2AB  | 
w:  ARANAĞME  |   | 
c2Bc d2cd edc4A2  | B2cd cBBA A4 ABcd  | 
w:   |   | 
e4 =f2fe d2dc d4  | d2dc B2d2 c4 d2e2  | \
w:  *  Ge mi  *  kal *  *  kar   |  su *  *  la rı  a kar    | 
e4 =f2fe d2dc d4  | 
w:  *  Naz lı  *  yâr  *  *  pen  | 
d2dc B2d2 c4 d2e2  | e4 =f2fe d2dc d4  | \
w:  ce *  *  re den  ba kar    |  *  Giy miş  *  mor  *  *  fe  | 
d2dc B2d2 c2c2 d2cB  | 
w:  si *  *  ni  de  Sü ley man    | 
A4 d2d2 dcBc B2A2  | B2A4A2 A4 ABcd  | \
w:  *  Ba kı şı  *  *  *  can  |  lar  ya kar   SAZ  | 
e4 =f2fe d2dc d4  | 
w:  *  Giy miş  *  mor  *  *  fe  | 
d2dc B2d2 c2c2 d2cB  | A4 d2d2 dcBc B2A2  | \
w:  si *  *  ni  de  Sü ley man    |  *  Ba kı şı  *  *  *  can  | 
B2A6 A4 z4  | 
w:  lar  ya kar    | 
A4 e=fed edc4A2  | B2cd cBAG A2GA B2AB  | 
w:  ARANAĞME  |   | 
c2Bc d2cd edc4A2  | B2cd cBBA A4 ABAG  | 
w:   |   | 
A4 e=fed edc4A2  | B2cd cBAG A2GA B2AB  | 
w:  ARANAĞME  |   | 
c2Bc d2cd edc4A2  | B2cd cBBA A4 ABcd  | 
w:   |   | 
e4 =f2fe d2dc d4  | d2dc B2d2 c4 d2e2  | \
w:  *  Ge mi  *  kal *  *  kar   |  su *  *  la rı  a kar    | 
e4 =f2fe d2dc d4  | 
w:  *  Naz lı  *  yâr  *  *  pen  | 
d2dc B2d2 c4 d2e2  | e4 =f2fe d2dc d4  | \
w:  ce *  *  re den  ba kar    |  *  Giy miş  *  mor  *  *  fe  | 
d2dc B2d2 c2c2 d2cB  | 
w:  si *  *  ni  de  Sü ley man    | 
A4 d2d2 dcBc B2A2  | B2A4A2 A4 ABcd  | \
w:  *  Ba kı şı  *  *  *  can  |  lar  ya kar   SAZ  | 
e4 =f2fe d2dc d4  | 
w:  *  Giy miş  *  mor  *  *  fe  | 
d2dc B2d2 c2c2 d2cB  | A4 d2d2 dcBc B2A2  | \
w:  si *  *  ni  de  Sü ley man    |  *  Ba kı şı  *  *  *  can  | 
B2A6 A4 z4  | 
w:  lar  ya kar    | 
|


